X:415
T: Humors of Cappa
S: "Roche Collection of Traditional Irish Music" 46/109
L: 1/8
M: 6/8
R: jig
K: Ddor
G | EAA cAG | EDE GED | EAA cAG | EDE ABc |
EAA cAG | EDE GED | d/e/dB c2A | GED D2 :|
A | Add fed | ede cAG | Add fed | cAG EDE |
Add fed | ede cAG | d/e/dB c2A | GED D2 :|
